Страховая/img/svg/planet.svg

<svg width="98" height="85" viewBox="0 0 98 85" fill="none" xmlns="http://www.w3.org/2000/svg">
<path d="M95.0535 47.0769C88.3859 70.2885 70.0405 85 44.4236 85C18.8067 85 0 62.5811 0 36.9423C0 11.3036 44.9383 0 70.5552 0C96.1721 0 102.566 20.9231 95.0535 47.0769Z" fill="#FFF3DB"/>
<g clip-path="url(#clip0)">
<path d="M83.8754 31.7978C78.2857 13.9427 59.2168 3.96458 41.3583 9.55195C23.502 15.1416 13.5226 34.2151 19.1112 52.0702L21.3055 51.3829C16.095 34.7381 25.3985 16.9565 42.0456 11.745C50.1099 9.22205 58.6743 9.98981 66.1582 13.906C73.6455 17.8244 79.1582 24.422 81.6824 32.4852C84.2053 40.5484 83.4386 49.1117 79.5214 56.5979C75.6053 64.0852 69.0077 69.5979 60.9433 72.122C47.4456 76.3461 32.6503 71.0117 24.9549 59.1474L23.0261 60.398C29.3871 70.2072 40.2744 75.8554 51.5606 75.8542C54.9169 75.8542 58.3111 75.3553 61.6295 74.314C70.2789 71.6071 77.356 65.6933 81.5582 57.6635C85.7605 49.6335 86.5823 40.4473 83.8754 31.7978Z" fill="#D0935A"/>
<path d="M44.8318 24.092L45.4917 21.8897L33.9974 18.4415C33.5951 18.3196 33.1548 18.43 32.8548 18.73L30.556 21.0288C30.2882 21.2966 30.1698 21.6793 30.2388 22.0518C30.3078 22.4242 30.556 22.7381 30.902 22.8921L41.2468 27.4897L42.1802 25.3886L33.3653 21.4702L33.9952 20.8403L44.8318 24.092Z" fill="#D0935A"/>
<path d="M55.5088 17.2451C55.5088 16.6106 54.995 16.0956 54.3594 16.0956C54.3582 16.0956 54.3582 16.0956 54.3571 16.0956C51.8284 16.0956 49.4502 17.0806 47.6617 18.8692L37.9147 28.6152L33.948 27.6232C33.5561 27.5255 33.1422 27.6392 32.856 27.9255L30.5571 30.2243C30.3066 30.4748 30.1848 30.8266 30.2285 31.1772C30.2721 31.5278 30.4744 31.8404 30.7779 32.0221L36.279 35.3232L39.5801 40.8243C39.7618 41.1278 40.0732 41.3301 40.4249 41.3737C40.4709 41.3795 40.5181 41.3818 40.5652 41.3818C40.8675 41.3818 41.1606 41.2623 41.3791 41.0462L43.6779 38.7474C43.9629 38.4612 44.0779 38.0474 43.9802 37.6554L42.9894 33.6933L52.8917 23.8887C54.5812 22.1197 55.5111 19.7956 55.5088 17.2451ZM40.9054 32.5186C40.6168 32.8036 40.5008 33.2197 40.5985 33.6139L41.5905 37.5806L40.7928 38.3783L38.102 33.8933C38.0043 33.7312 37.8698 33.5956 37.7078 33.4991L33.2228 30.8082L34.0205 30.0106L37.9872 31.0026C38.3791 31.1003 38.7929 30.9865 39.0792 30.7003L49.286 20.4934C50.3435 19.4349 51.6745 18.7486 53.1182 18.4992C52.8906 19.9199 52.2435 21.2371 51.2504 22.2773L40.9054 32.5186Z" fill="#D0935A"/>
<path d="M53.1605 37.7564L49.7123 26.1129L47.5077 26.7658L50.7478 37.706L50.0501 38.3222L46.218 29.4325L44.1064 30.3429L48.5662 40.6877C48.7122 41.0257 49.0111 41.274 49.3708 41.3544C49.4547 41.3727 49.5386 41.382 49.6225 41.382C49.8996 41.382 50.1708 41.282 50.3823 41.0947L52.8192 38.9453C53.1547 38.6495 53.2869 38.1863 53.1605 37.7564Z" fill="#D0935A"/>
<path d="M39.4525 71.3783C31.2663 75.2575 24.8445 75.7587 21.8376 72.7531C16.6261 67.5415 22.2858 52.4002 35.0019 37.5313L33.2548 36.037C19.3078 52.345 13.9435 68.1116 20.2113 74.3783C21.9619 76.1277 24.4343 77.0002 27.5008 77.0002C31.0755 77.0002 35.4571 75.8152 40.4364 73.4553L39.4525 71.3783Z" fill="#D0935A"/>
<path d="M78.3616 47.7357C78.1616 47.3622 77.772 47.1289 77.3478 47.1289H73.4605L70.3295 40.868C70.134 40.4784 69.7364 40.2323 69.3007 40.2323H57.8064C57.1707 40.2323 56.657 40.7472 56.657 41.3817V50.5771C56.657 51.2128 57.1708 51.7265 57.8064 51.7265H61.2546V64.3702C61.2546 65.0059 61.7684 65.5196 62.404 65.5196H68.1511C68.4557 65.5196 68.7477 65.3989 68.965 65.1816L73.5626 60.584C73.7786 60.369 73.8994 60.0771 73.8994 59.7714V55.5219L78.3039 48.9151C78.5386 48.5633 78.5616 48.1093 78.3616 47.7357ZM71.7926 54.5369C71.6673 54.7255 71.5995 54.9484 71.5995 55.1749V59.2967L67.6754 63.2208H63.5536H63.5524V50.5771C63.5524 49.9414 63.0387 49.4277 62.403 49.4277H58.9547V42.5312H68.5892L71.7202 48.7922C71.9156 49.1818 72.3133 49.4278 72.7489 49.4278H75.1995L71.7926 54.5369Z" fill="#D0935A"/>
<path d="M79.1628 37.9334L74.8961 30.4667C74.6915 30.1081 74.3099 29.8874 73.8984 29.8874H67.002C66.618 29.8874 66.2594 30.0793 66.0457 30.3988L64.0882 33.3356H61.2549V27.5885H67.002C67.3077 27.5885 67.5986 27.4678 67.8146 27.2518L72.0755 22.9909H77.3467V20.692H71.5996C71.2938 20.692 71.003 20.8128 70.787 21.0288L66.5261 25.2897H60.1055C59.4698 25.2897 58.9561 25.8046 58.9561 26.4391V34.485C58.9561 35.1195 59.4699 35.6344 60.1055 35.6344H64.7031C65.0871 35.6344 65.4457 35.4425 65.6594 35.123L67.6169 32.1862H73.2319L77.4986 39.6529C77.7031 40.0115 78.0848 40.2322 78.4962 40.2322H83.0939V37.9334H79.1628Z" fill="#D0935A"/>
<path d="M50.9099 49.4277H44.4893L41.3778 46.3162C41.1629 46.1001 40.8698 45.9795 40.5652 45.9795H34.8181C34.1836 45.9795 33.6687 46.4933 33.6687 47.1289V55.1748C33.6687 55.8105 34.1836 56.3242 34.8181 56.3242H39.4158V67.8185C39.4158 68.2542 39.6617 68.6519 40.0515 68.8471C40.2136 68.9276 40.3905 68.9679 40.5653 68.9679C40.809 68.9679 41.0516 68.8909 41.2549 68.738L45.8526 65.2897C46.1422 65.0725 46.3124 64.7311 46.3124 64.3702V61.4737L51.6285 57.222C51.9009 57.0037 52.0595 56.6738 52.0595 56.3243V50.5773C52.0593 49.9416 51.5444 49.4277 50.9099 49.4277ZM49.7605 55.7726L44.4444 60.0243C44.1721 60.2428 44.0134 60.5725 44.0134 60.922V63.7956L41.7146 65.5198V55.1749C41.7146 54.5392 41.1997 54.0255 40.5652 54.0255H35.9675V48.2784H40.0893L43.2008 51.3899C43.4157 51.6059 43.7089 51.7267 44.0134 51.7267H49.7605V55.7726Z" fill="#D0935A"/>
<path d="M27.7571 32.7439L24.3089 26.9968C24.102 26.6509 23.7272 26.4393 23.3239 26.4393H22.1745V28.7381H22.6734L25.3251 33.1576L22.5114 35.9714C22.2952 36.1863 22.1746 36.4794 22.1746 36.784V40.2322H18.7261V42.5311H23.3237C23.9582 42.5311 24.4731 42.0161 24.4731 41.3817V37.2599L27.5846 34.1484C27.9571 33.7748 28.0284 33.1967 27.7571 32.7439Z" fill="#D0935A"/>
<path d="M53.2099 9.19794V10.6002L49.4823 11.5323C49.3547 11.5646 49.2328 11.6186 49.1237 11.691L46.2305 13.6197L39.9305 10.4692L38.9019 12.5254L45.7983 15.9737C45.9605 16.0541 46.1363 16.0944 46.3122 16.0944C46.5352 16.0944 46.7571 16.0289 46.949 15.9013L50.2317 13.7128L54.6375 12.6117C55.1489 12.4841 55.5087 12.0244 55.5087 11.4968V9.19794H53.2099Z" fill="#D0935A"/>
</g>
<defs>
<clipPath id="clip0">
<rect width="69" height="69" fill="white" transform="translate(17 8)"/>
</clipPath>
</defs>
</svg>

<svg width="98" height="85" fill="none" xmlns="http://www.w3.org/2000/svg"><path d="M95.053 47.077C88.386 70.289 70.04 85 44.423 85 18.808 85 0 62.581 0 36.942 0 11.304 44.938 0 70.555 0c25.617 0 32.011 20.923 24.498 47.077z" fill="#FFF3DB"/><g clip-path="url(#clip0)" fill="#D0935A"><path d="M83.875 31.798C78.285 13.943 59.217 3.965 41.358 9.552c-17.856 5.59-27.835 24.663-22.247 42.518l2.194-.687c-5.21-16.645 4.093-34.427 20.74-39.638 8.065-2.523 16.63-1.755 24.113 2.161 7.487 3.918 13 10.516 15.524 18.58 2.523 8.062 1.757 16.626-2.16 24.112-3.917 7.487-10.514 13-18.579 15.524-13.497 4.224-28.293-1.11-35.988-12.975l-1.929 1.251c6.361 9.81 17.248 15.457 28.535 15.456 3.356 0 6.75-.499 10.069-1.54 8.649-2.707 15.726-8.62 19.928-16.65s5.024-17.217 2.317-25.866z"/><path d="M44.832 24.092l.66-2.202-11.495-3.448a1.148 1.148 0 00-1.142.288l-2.299 2.299a1.15 1.15 0 00.346 1.863l10.345 4.598.933-2.101-8.815-3.919.63-.63 10.837 3.252z"/><path d="M55.509 17.245a1.15 1.15 0 00-1.15-1.15h-.002a9.407 9.407 0 00-6.695 2.774l-9.747 9.746-3.967-.992a1.15 1.15 0 00-1.092.302l-2.299 2.3a1.148 1.148 0 00.22 1.797l5.502 3.301 3.301 5.501a1.148 1.148 0 001.8.222l2.298-2.299c.285-.286.4-.7.302-1.092l-.99-3.962 9.902-9.804c1.69-1.77 2.62-4.093 2.617-6.644zM40.905 32.52a1.15 1.15 0 00-.306 1.095l.992 3.967-.798.797-2.691-4.485a1.145 1.145 0 00-.394-.394l-4.485-2.69.797-.798 3.967.992a1.15 1.15 0 001.092-.303l10.207-10.207a7.11 7.11 0 013.832-1.994 7.087 7.087 0 01-1.868 3.778L40.905 32.52z"/><path d="M53.16 37.756l-3.448-11.643-2.204.653 3.24 10.94-.698.616-3.832-8.89-2.112.91 4.46 10.346a1.15 1.15 0 001.816.407l2.437-2.15a1.15 1.15 0 00.341-1.189zM39.453 71.378c-8.187 3.88-14.609 4.38-17.615 1.375-5.212-5.212.448-20.353 13.164-35.222l-1.747-1.494C19.308 52.345 13.943 68.112 20.21 74.378 21.96 76.128 24.433 77 27.5 77c3.575 0 7.956-1.185 12.935-3.545l-.983-2.077zm38.909-23.642a1.15 1.15 0 00-1.014-.607H73.46l-3.13-6.261a1.151 1.151 0 00-1.03-.636H57.807a1.15 1.15 0 00-1.149 1.15v9.195c0 .636.514 1.15 1.15 1.15h3.448V64.37c0 .636.513 1.15 1.149 1.15h5.747c.305 0 .597-.121.814-.338l4.598-4.598c.216-.215.336-.507.336-.813v-4.25l4.405-6.606a1.15 1.15 0 00.058-1.18zm-6.57 6.8a1.156 1.156 0 00-.192.639v4.122l-3.925 3.924h-4.123V50.577c0-.636-.513-1.15-1.149-1.15h-3.448v-6.896h9.634l3.131 6.261c.196.39.593.636 1.029.636h2.45l-3.406 5.109zm7.371-16.603l-4.267-7.466a1.15 1.15 0 00-.998-.58h-6.896a1.15 1.15 0 00-.956.512l-1.958 2.937h-2.833v-5.747h5.747c.306 0 .597-.121.813-.337l4.26-4.261h5.272v-2.299H71.6c-.306 0-.597.12-.813.337l-4.26 4.26h-6.422a1.15 1.15 0 00-1.149 1.15v8.046c0 .635.514 1.15 1.15 1.15h4.597c.384 0 .743-.192.956-.512l1.958-2.937h5.615l4.267 7.467c.204.358.586.58.997.58h4.598v-2.3h-3.931z"/><path d="M50.91 49.428h-6.42l-3.112-3.112a1.146 1.146 0 00-.813-.337h-5.747a1.15 1.15 0 00-1.15 1.15v8.046c0 .636.516 1.15 1.15 1.15h4.598v11.493a1.15 1.15 0 001.839.92l4.598-3.448c.29-.218.46-.559.46-.92v-2.896l5.316-4.252a1.15 1.15 0 00.43-.898v-5.747a1.15 1.15 0 00-1.15-1.15zm-1.15 6.345l-5.316 4.251a1.15 1.15 0 00-.43.898v2.874l-2.3 1.724V55.175c0-.636-.514-1.15-1.149-1.15h-4.597v-5.747h4.121l3.112 3.112c.215.216.508.337.812.337h5.748v4.046zM27.757 32.744l-3.448-5.747a1.148 1.148 0 00-.985-.558h-1.15v2.3h.5l2.651 4.419-2.814 2.813a1.146 1.146 0 00-.336.813v3.448h-3.449v2.3h4.598a1.15 1.15 0 001.15-1.15V37.26l3.11-3.112a1.15 1.15 0 00.173-1.404zM53.21 9.198V10.6l-3.728.932a1.17 1.17 0 00-.358.159L46.23 13.62l-6.3-3.15-1.028 2.055 6.896 3.449a1.156 1.156 0 001.151-.073l3.283-2.188 4.406-1.101a1.15 1.15 0 00.87-1.115v-2.3H53.21z"/></g><defs><clipPath id="clip0"><path fill="#fff" transform="translate(17 8)" d="M0 0h69v69H0z"/></clipPath></defs></svg>
